X: 11137
T: Duke Of York's Camp, The
R: jig
M: 6/8
K: Dmajor
(3 A/B/c/|d2A A>BG|F2D D>EF|G2E F>ED|ECA, A,2c|
d2A A>BG|F2D D>EF|GAF EDC|D>ED D2:|
A|A>FA d2d|BGB e2e|gfe dcd|ecA A2F|
GFG EFG|FAc d2B|AFD GEC|DED D2A|
A>FA d2d|BGB e2e|gfe dcd|ecA A2F|
dcd ede|fef g2b|afd gec|ded d2||

